src/img/calc/forearm.svg

<svg width="58" height="65" viewBox="0 0 58 65" fill="none" xmlns="http://www.w3.org/2000/svg">
<path d="M51.4614 51.1142C63.3278 27.6519 56.3048 24.5396 50.7349 17.1179C45.1649 9.69613 49.4029 1.43646 49.4029 1.43646C41.1691 16.3996 54.0042 17.2376 55.3361 29.5672C56.547 42.0166 48.1921 49.3186 44.6806 65C44.6806 65 45.4071 63.0847 51.4614 51.1142ZM40.3215 14.1252C40.2004 14.4843 38.9896 17.3573 33.4196 15.8011C27.4864 14.1252 27.2443 9.93554 15.8622 9.09761C4.35908 8.37937 0 0 0 0C0 0 2.5428 7.66114 10.6555 9.57643C18.7683 11.372 22.4008 10.5341 25.9123 14.1252C30.2714 18.4346 38.7474 19.3923 40.3215 14.1252ZM6.53862 20.8287C6.53862 20.8287 20.3424 25.3775 18.6472 37.9466C18.6472 37.8269 25.0647 25.6169 6.53862 20.8287ZM10.5344 54.2265C0.242171 41.8969 15.9833 31.3628 15.9833 31.3628C-2.90605 41.6575 7.99165 54.9448 7.99165 54.9448L10.5344 54.2265ZM40.3215 34.8343C36.0835 46.9245 28.8184 48.4807 28.8184 48.4807C39.7161 47.0442 40.3215 34.8343 40.3215 34.8343Z" fill="#3A4561"/>
</svg>

<svg width="58" height="65" fill="none" xmlns="http://www.w3.org/2000/svg"><path d="M51.461 51.114c11.867-23.462 4.844-26.574-.726-33.996-5.57-7.422-1.332-15.682-1.332-15.682-8.234 14.964 4.601 15.802 5.933 28.131C56.547 42.017 48.192 49.32 44.681 65c0 0 .726-1.915 6.78-13.886zm-11.14-36.989c-.12.36-1.331 3.232-6.901 1.676-5.934-1.676-6.176-5.865-17.558-6.703C4.36 8.379 0 0 0 0s2.543 7.661 10.655 9.576c8.113 1.796 11.746.958 15.257 4.55 4.36 4.309 12.835 5.266 14.41 0zM6.54 20.83s13.803 4.549 12.108 17.118c0-.12 6.418-12.33-12.108-17.118zm3.995 33.398c-10.292-12.33 5.45-22.864 5.45-22.864-18.89 10.294-7.992 23.582-7.992 23.582l2.542-.718zm29.788-19.393c-4.239 12.09-11.504 13.647-11.504 13.647 10.898-1.437 11.503-13.647 11.503-13.647z" fill="#3A4561"/></svg>
